ix/lamp_outline.svg

<svg viewBox="0 0 24 24" fill="none" xmlns="http://www.w3.org/2000/svg" height="1em" width="1em">
  <path d="M18.21 15.44H5.79001C4.76001 15.44 3.85001 15.02 3.29001 14.29C2.73001 13.56 2.57001 12.57 2.84001 11.58L5.04001 3.5C5.38001 2.24 6.68001 1.25 7.99001 1.25H16C17.31 1.25 18.6 2.24 18.95 3.5L21.15 11.58C21.42 12.57 21.26 13.56 20.7 14.29C20.14 15.02 19.24 15.44 18.21 15.44ZM7.99001 2.75C7.36001 2.75 6.65001 3.29 6.49001 3.9L4.29001 11.98C4.14001 12.52 4.21001 13.02 4.49001 13.39C4.77001 13.76 5.23001 13.95 5.79001 13.95H18.21C18.77 13.95 19.24 13.75 19.51 13.39C19.78 13.03 19.86 12.53 19.71 11.98L17.51 3.9C17.34 3.29 16.64 2.75 16.01 2.75H7.99001Z" fill="#292D32"/>
  <path d="M12 22.75C11.59 22.75 11.25 22.41 11.25 22V15C11.25 14.59 11.59 14.25 12 14.25C12.41 14.25 12.75 14.59 12.75 15V22C12.75 22.41 12.41 22.75 12 22.75Z" fill="#292D32"/>
  <path d="M16 22.75H8C7.59 22.75 7.25 22.41 7.25 22C7.25 21.59 7.59 21.25 8 21.25H16C16.41 21.25 16.75 21.59 16.75 22C16.75 22.41 16.41 22.75 16 22.75Z" fill="#292D32"/>
</svg>

<svg viewBox="0 0 24 24" fill="none" xmlns="http://www.w3.org/2000/svg" height="1em" width="1em">
  <path d="M18.21 15.44H5.79c-1.03 0-1.94-.42-2.5-1.15s-.72-1.72-.45-2.71l2.2-8.08c.34-1.26 1.64-2.25 2.95-2.25H16c1.31 0 2.6.99 2.95 2.25l2.2 8.08c.27.99.11 1.98-.45 2.71s-1.46 1.15-2.49 1.15ZM7.99 2.75c-.63 0-1.34.54-1.5 1.15l-2.2 8.08c-.15.54-.08 1.04.2 1.41.28.37.74.56 1.3.56h12.42c.56 0 1.03-.2 1.3-.56.27-.36.35-.86.2-1.41l-2.2-8.08c-.17-.61-.87-1.15-1.5-1.15H7.99Z" fill="#292D32"/>
  <path d="M12 22.75c-.41 0-.75-.34-.75-.75v-7c0-.41.34-.75.75-.75s.75.34.75.75v7c0 .41-.34.75-.75.75Z" fill="#292D32"/>
  <path d="M16 22.75H8c-.41 0-.75-.34-.75-.75s.34-.75.75-.75h8c.41 0 .75.34.75.75s-.34.75-.75.75Z" fill="#292D32"/>
</svg>
